storage/app/icons/phosphoricons/bold/matrix-logo-bold.svg

<svg xmlns="http://www.w3.org/2000/svg" fill="currentColor" viewBox="0 0 256 256"><path d="M76 216a12 12 0 0 1-12 12H40a12 12 0 0 1-12-12V40a12 12 0 0 1 12-12h24a12 12 0 0 1 0 24H52v152h12a12 12 0 0 1 12 12M216 28h-24a12 12 0 0 0 0 24h12v152h-12a12 12 0 0 0 0 24h24a12 12 0 0 0 12-12V40a12 12 0 0 0-12-12m-28 132v-40a36 36 0 0 0-60-26.8 35.91 35.91 0 0 0-39.51-5.68A12 12 0 0 0 68 96v64a12 12 0 0 0 24 0v-40a12 12 0 0 1 24 0v40a12 12 0 0 0 24 0v-40a12 12 0 0 1 24 0v40a12 12 0 0 0 24 0"/></svg>

<svg xmlns="http://www.w3.org/2000/svg" viewBox="0 0 256 256" fill="currentColor"><path d="M76,216a12,12,0,0,1-12,12H40a12,12,0,0,1-12-12V40A12,12,0,0,1,40,28H64a12,12,0,0,1,0,24H52V204H64A12,12,0,0,1,76,216ZM216,28H192a12,12,0,0,0,0,24h12V204H192a12,12,0,0,0,0,24h24a12,12,0,0,0,12-12V40A12,12,0,0,0,216,28ZM188,160V120a36,36,0,0,0-60-26.8,35.91,35.91,0,0,0-39.51-5.68A12,12,0,0,0,68,96v64a12,12,0,0,0,24,0V120a12,12,0,0,1,24,0v40a12,12,0,0,0,24,0V120a12,12,0,0,1,24,0v40a12,12,0,0,0,24,0Z"/></svg>
